iu/star-wars-the-old-republic.svg

<svg xmlns="http://www.w3.org/2000/svg" viewBox="0 0 120 120" height="1em" width="1em">
  <ellipse style="fill:#743218" cx="60" cy="60.000011" rx="55" ry="55"/>
  <path style="display:inline;fill:#f8951d" d="M 60 0 C 26.862915 0 0 26.862915 0 60 C 0 93.137085 26.862915 120 60 120 C 93.137085 120 120 93.137085 120 60 C 120 26.862915 93.137085 0 60 0 z M 60 6 C 89.823376 6 114 30.176624 114 60 C 114 89.823376 89.823376 114 60 114 C 30.176624 114 6 89.823376 6 60 C 6 30.176624 30.176624 6 60 6 z M 62.144531 8.9140625 L 62.144531 111.03516 L 78.21875 101.07227 L 76.646484 98.351562 L 68.619141 102.98633 L 65.933594 78.898438 L 76.654297 72.708984 L 96.21875 87.050781 L 88.273438 91.716797 L 89.773438 94.494141 L 106.375 85.539062 L 105.77148 66.570312 L 102.75391 66.683594 L 102.72656 75.945312 L 80.451172 66.126953 L 80.451172 54 L 102.72656 44.027344 L 102.75391 53.460938 L 105.77148 53.533203 L 106.37305 34.515625 L 89.773438 25.636719 L 88.273438 28.443359 L 96.21875 33.035156 L 76.755859 47.351562 L 65.970703 41.128906 L 68.615234 16.996094 L 76.611328 21.787109 L 78.330078 19.052734 L 62.144531 8.9140625 z M 44.349609 12.792969 C 5.1906471 25.968905 17.527867 75.246356 43.728516 75.417969 L 43.345703 59.208984 C 43.40416 57.311949 41.822976 54.501311 38.027344 51.742188 C 27.89335 44.375576 20.701931 25.779469 44.349609 12.792969 z M 52.777344 26.140625 C 49.156794 29.315357 46.497741 34.370464 45.572266 41.871094 C 56.664556 43.297425 58.517989 62.387224 54.931641 84.755859 C 51.443458 103.42014 51.862957 98.800006 47.888672 92.052734 C 45.921113 88.824469 44.698728 88.864379 38.896484 89.539062 C 30.84221 90.47529 26.200456 90.538841 14.738281 78.972656 C 21.286929 87.966716 26.843153 103.7599 43 94.763672 C 39.826693 98.773496 37.30392 99.443611 33.212891 100.76172 C 40.823254 106.12232 49.119999 108.40361 58.457031 108.98633 L 58.4375 44.582031 C 57.833591 43.345233 56.9354 43.186131 54.326172 41.414062 C 50.317273 38.107579 47.776303 32.031074 52.777344 26.140625 z M 59.443359 27.382812 L 58.560547 31.333984 L 52.376953 31.333984 L 52.376953 31.537109 L 57.005859 33.044922 L 57.029297 33.486328 L 52.376953 34.990234 L 52.375 35.201172 L 58.560547 35.201172 L 59.423828 39.15625 L 59.943359 39.15625 L 59.943359 27.382812 L 59.443359 27.382812 z M 16.275391 37.005859 C 2.9316555 61.468028 19.994767 95.560901 45.451172 85.964844 C 44.083774 76.789555 39.091403 76.949052 31.417969 74.339844 C 26.210008 72.568974 13.425564 62.939363 16.275391 37.005859 z"/>
  <circle style="fill:none;stroke:#a34b01;stroke-width:0.624" cx="60" cy="60" r="56.98822"/>
</svg>

<svg xmlns="http://www.w3.org/2000/svg" viewBox="0 0 120 120" height="1em" width="1em">
  <circle style="fill:#743218" cx="60" cy="60" r="55"/>
  <path style="display:inline;fill:#f8951d" d="M60 0C26.863 0 0 26.863 0 60s26.863 60 60 60 60-26.863 60-60S93.137 0 60 0zm0 6c29.823 0 54 24.177 54 54s-24.177 54-54 54S6 89.823 6 60 30.177 6 60 6zm2.145 2.914v102.121l16.074-9.963-1.573-2.72-8.027 4.634-2.685-24.088 10.72-6.189L96.22 87.051l-7.946 4.666 1.5 2.777 16.602-8.955-.604-18.969-3.017.114-.027 9.261-22.276-9.818V54l22.276-9.973.027 9.434 3.017.072.602-19.017-16.6-8.88-1.5 2.807 7.946 4.592-19.463 14.317-10.785-6.223 2.644-24.133 7.996 4.791 1.72-2.734L62.144 8.914zM44.35 12.793c-39.16 13.176-26.822 62.453-.621 62.625l-.383-16.209c.058-1.897-1.523-4.708-5.319-7.467-10.134-7.366-17.325-25.963 6.323-38.949zm8.427 13.348c-3.62 3.174-6.28 8.23-7.205 15.73 11.093 1.426 12.946 20.516 9.36 42.885-3.489 18.664-3.069 14.044-7.043 7.297-1.968-3.229-3.19-3.189-8.993-2.514-8.054.936-12.696 1-24.158-10.566C21.287 87.967 26.843 103.76 43 94.763c-3.173 4.01-5.696 4.68-9.787 5.999 7.61 5.36 15.907 7.642 25.244 8.224l-.02-64.404c-.603-1.237-1.502-1.396-4.11-3.168-4.01-3.306-6.55-9.383-1.55-15.273zm6.666 1.242-.882 3.951h-6.184v.203l4.629 1.508.023.441-4.652 1.504-.002.211h6.186l.863 3.955h.52V27.383h-.5zm-43.168 9.623C2.932 61.468 19.995 95.56 45.451 85.965c-1.367-9.175-6.36-9.016-14.033-11.625-5.208-1.771-17.992-11.4-15.143-37.334z"/>
  <circle style="fill:none;stroke:#a34b01;stroke-width:.624" cx="60" cy="60" r="56.988"/>
</svg>
